;FLAVOR:Marlin
;TIME:11789
;Filament used: 9.78941m
;Layer height: 0.28
;MINX:44.44
;MINY:50.13
;MINZ:0.28
;MAXX:190.56
;MAXY:184.87
;MAXZ:10.08
;Generated with Cura_SteamEngine 4.13.1
M140 S50
M105
M190 S50
M104 S200
M105
M109 S200
M82 ;absolute extrusion mode
; Ender 3 Custom Start G-code
G92 E0 ; Reset Extruder
G28 ; Home all axes
G1 Z2.0 F3000 ; Move Z Axis up little to prevent scratching of Heat Bed
G1 X0.1 Y20 Z0.3 F5000.0 ; Move to start position
G1 X0.1 Y200.0 Z0.3 F1500.0 E15 ; Draw the first line
G1 X0.4 Y200.0 Z0.3 F5000.0 ; Move to side a little
G1 X0.4 Y20 Z0.3 F1500.0 E30 ; Draw the second line
G92 E0 ; Reset Extruder
G1 Z2.0 F3000 ; Move Z Axis up little to prevent scratching of Heat Bed
G1 X5 Y20 Z0.3 F5000.0 ; Move over to prevent blob squish
G92 E0
G92 E0
G1 F2700 E-5
;LAYER_COUNT:36
;LAYER:0
M107
G0 F6000 X61.408 Y63.456 Z0.28
;TYPE:SKIRT
G1 F2700 E0
G1 F1200 X70.92 Y53.803 E0.63104
G1 X71.414 Y53.315 E0.66337
G1 X72.109 Y52.685 E0.70705
G1 X72.855 Y52.117 E0.75071
G1 X73.647 Y51.614 E0.7944
G1 X74.478 Y51.18 E0.83806
G1 X75.344 Y50.819 E0.88174
G1 X76.237 Y50.532 E0.92542
G1 X77.151 Y50.323 E0.96908
G1 X78.08 Y50.193 E1.01276
G1 X78.983 Y50.142 E1.05487
G1 X79.894 Y50.13 E1.0973
G1 X93.145 Y50.13 E1.71432
G1 X94.801 Y50.152 E1.79144
G1 X97.488 Y50.151 E1.91655
G1 X99.014 Y50.13 E1.98762
G1 X112.443 Y50.131 E2.61293
G1 X113.146 Y50.142 E2.64567
G1 X114.082 Y50.197 E2.68933
G1 X115.011 Y50.331 E2.73303
G1 X115.924 Y50.544 E2.77669
G1 X116.816 Y50.834 E2.82036
G1 X117.68 Y51.198 E2.86402
G1 X118.51 Y51.636 E2.90772
G1 X119.299 Y52.142 E2.95136
G1 X120.234 Y52.877 E3.00674
G1 X121.045 Y53.589 E3.05699
G1 X123.023 Y55.28 E3.17817
G1 X124.957 Y56.839 E3.29384
G1 X126.978 Y58.378 E3.41212
G1 X129.035 Y59.853 E3.52999
G1 X131.093 Y61.244 E3.64565
G1 X133.235 Y62.604 E3.7638
G1 X135.415 Y63.903 E3.88196
G1 X137.58 Y65.112 E3.99743
G1 X139.829 Y66.285 E4.11554
G1 X142.097 Y67.388 E4.23297
G1 X144.381 Y68.42 E4.34968
G1 X146.728 Y69.402 E4.46814
G1 X149.076 Y70.305 E4.58528
G1 X151.412 Y71.13 E4.70064
G1 X153.847 Y71.912 E4.81973
G1 X156.234 Y72.606 E4.93548
G1 X158.679 Y73.242 E5.05312
G1 X161.158 Y73.815 E5.17159
G1 X163.592 Y74.301 E5.28717
G1 X166.084 Y74.728 E5.4049
G1 X168.571 Y75.082 E5.52187
G1 X171.089 Y75.368 E5.63987
G1 X173.587 Y75.581 E5.75661
G1 X176.067 Y75.722 E5.87228
G1 X178.695 Y75.796 E5.9947
G1 X179.72 Y75.812 E6.04243
G1 X180.656 Y75.867 E6.08609
G1 X181.584 Y76.001 E6.12975
G1 X182.498 Y76.213 E6.17344
G1 X183.39 Y76.503 E6.21712
G1 X184.254 Y76.867 E6.26077
G1 X185.084 Y77.304 E6.30445
G1 X185.874 Y77.81 E6.34813
G1 X186.617 Y78.381 E6.39177
G1 X187.31 Y79.013 E6.43544
G1 X187.946 Y79.703 E6.47914
G1 X188.521 Y80.444 E6.52281
G1 X189.031 Y81.231 E6.56648
G1 X189.471 Y82.059 E6.61014
G1 X189.84 Y82.921 E6.6538
G1 X190.134 Y83.812 E6.69749
G1 X190.351 Y84.724 E6.74114
G1 X190.49 Y85.652 E6.78483
G1 X190.547 Y86.501 E6.82446
G1 X190.556 Y86.82 E6.83932
G1 X190.56 Y87.13 E6.85375
G1 X190.559 Y89.25 E6.95247
G1 X190.549 Y89.951 E6.98511
G1 X190.463 Y91.174 E7.0422
G1 X190.23 Y92.434 E7.10187
G1 X189.965 Y93.513 E7.1536
G1 X189.384 Y96.031 E7.27393
G1 X188.883 Y98.52 E7.39216
G1 X188.457 Y100.999 E7.50928
G1 X188.102 Y103.486 E7.62626
G1 X187.819 Y105.969 E7.74263
G1 X187.602 Y108.508 E7.86128
G1 X187.461 Y111.009 E7.97793
G1 X187.389 Y113.505 E8.0942
G1 X187.388 Y116.036 E8.21205
G1 X187.457 Y118.549 E8.32911
G1 X187.598 Y121.05 E8.44575
G1 X187.813 Y123.596 E8.56473
G1 X188.092 Y126.058 E8.6801
G1 X188.452 Y128.59 E8.79919
G1 X188.874 Y131.056 E8.91569
G1 X189.361 Y133.491 E9.03132
G1 X189.937 Y135.994 E9.15091
G1 X190.221 Y137.127 E9.2053
G1 X190.409 Y138.046 E9.24898
G1 X190.519 Y138.977 E9.29263
G1 X190.545 Y139.458 E9.31506
G1 X190.555 Y139.78 E9.33006
G1 X190.56 Y140.121 E9.34594
G1 X190.559 Y142.2 E9.44275
G1 X190.55 Y142.927 E9.47661
G1 X190.499 Y143.864 E9.5203
G1 X190.367 Y144.792 E9.56395
G1 X190.158 Y145.706 E9.60761
G1 X189.871 Y146.599 E9.65128
G1 X189.509 Y147.465 E9.69499
G1 X189.075 Y148.296 E9.73864
G1 X188.571 Y149.087 E9.78232
G1 X188.002 Y149.832 E9.82597
G1 X187.371 Y150.527 E9.86968
G1 X186.684 Y151.165 E9.91333
G1 X185.945 Y151.742 E9.95699
G1 X185.159 Y152.254 E10.00067
G1 X184.333 Y152.697 E10.04432
G1 X183.471 Y153.069 E10.08803
G1 X182.582 Y153.365 E10.13166
G1 X181.67 Y153.585 E10.17535
G1 X180.489 Y153.751 E10.23088
G1 X180.002 Y153.792 E10.25364
G1 X177.972 Y153.938 E10.34841
G1 X175.467 Y154.19 E10.46564
G1 X172.979 Y154.512 E10.58246
G1 X170.498 Y154.904 E10.69941
G1 X167.997 Y155.373 E10.8179
G1 X165.561 Y155.901 E10.93397
G1 X163.155 Y156.493 E11.04934
G1 X160.662 Y157.184 E11.1698
G1 X158.289 Y157.914 E11.28541
G1 X155.895 Y158.724 E11.40309
G1 X153.535 Y159.599 E11.52029
G1 X151.215 Y160.534 E11.63677
G1 X148.884 Y161.552 E11.75521
G1 X146.632 Y162.611 E11.87108
G1 X144.352 Y163.764 E11.99005
G1 X142.164 Y164.947 E12.10587
G1 X139.981 Y166.212 E12.22336
G1 X137.847 Y167.528 E12.3401
G1 X135.716 Y168.929 E12.45885
G1 X133.678 Y170.35 E12.57454
G1 X131.645 Y171.857 E12.69238
G1 X129.674 Y173.405 E12.80908
G1 X127.718 Y175.034 E12.92761
G1 X125.856 Y176.675 E13.04318
G1 X124 Y178.407 E13.16139
G1 X122.201 Y180.182 E13.27906
G1 X121.192 Y181.205 E13.34597
G1 X120.694 Y181.695 E13.3785
G1 X120.215 Y182.144 E13.40907
G1 X119.483 Y182.73 E13.45274
G1 X118.704 Y183.252 E13.4964
G1 X117.883 Y183.705 E13.54006
G1 X117.026 Y184.087 E13.58375
G1 X116.14 Y184.395 E13.62743
G1 X115.231 Y184.626 E13.6711
G1 X114.306 Y184.779 E13.71476
G1 X113.14 Y184.858 E13.76918
G1 X112.226 Y184.87 E13.81174
G1 X98.821 Y184.869 E14.43594
G1 X97.319 Y184.848 E14.50588
G1 X94.632 Y184.849 E14.631
G1 X93.106 Y184.87 E14.70206
G1 X79.693 Y184.869 E15.32663
G1 X78.99 Y184.859 E15.35937
G1 X78.053 Y184.806 E15.40307
G1 X77.125 Y184.673 E15.44672
G1 X76.211 Y184.461 E15.49041
G1 X75.319 Y184.173 E15.53406
G1 X74.454 Y183.809 E15.57775
G1 X73.624 Y183.373 E15.62141
G1 X72.833 Y182.868 E15.66511
G1 X72.089 Y182.298 E15.70875
G1 X71.423 Y181.692 E15.75068
G1 X70.807 Y181.084 E15.79098
G1 X61.408 Y171.543 E16.41462
G1 X60.335 Y170.425 E16.48677
G1 X58.451 Y168.515 E16.61169
G1 X57.387 Y167.465 E16.6813
G1 X48.094 Y158.034 E17.29782
G1 X47.484 Y157.396 E17.33892
G1 X46.867 Y156.69 E17.38258
G1 X46.312 Y155.934 E17.42625
G1 X45.824 Y155.133 E17.46993
G1 X45.405 Y154.294 E17.5136
G1 X45.06 Y153.422 E17.55726
G1 X44.79 Y152.523 E17.60097
G1 X44.598 Y151.605 E17.64464
G1 X44.484 Y150.674 E17.68832
G1 X44.454 Y150.115 E17.71438
G1 X44.445 Y149.791 E17.72948
G1 X44.441 Y149.489 E17.74354
G1 X44.441 Y144.936 E17.95555
G1 X44.449 Y144.38 E17.98144
G1 X44.451 Y141.745 E18.10414
G1 X44.443 Y141.368 E18.12169
G1 X44.44 Y140.994 E18.13911
G1 X44.441 Y136.339 E18.35587
G1 X44.462 Y134.841 E18.42563
G1 X44.461 Y132.154 E18.55074
G1 X44.44 Y130.623 E18.62204
G1 X44.441 Y121.05 E19.0678
G1 X44.466 Y119.304 E19.14911
G1 X44.48 Y118.791 E19.17301
G1 X44.484 Y116.192 E19.29403
G1 X44.453 Y114.761 E19.36068
G1 X44.445 Y114.491 E19.37325
G1 X44.44 Y114.165 E19.38843
G1 X44.441 Y104.191 E19.85287
G1 X44.462 Y102.689 E19.92281
G1 X44.461 Y100.002 E20.04793
G1 X44.44 Y98.476 E20.11899
G1 X44.441 Y94.938 E20.28374
G1 X44.449 Y94.384 E20.30954
G1 X44.45 Y91.758 E20.43181
G1 X44.443 Y91.412 E20.44793
G1 X44.44 Y90.986 E20.46777
G1 X44.441 Y85.705 E20.71367
G1 X44.451 Y85.027 E20.74525
G1 X44.505 Y84.09 E20.78895
G1 X44.638 Y83.162 E20.8326
G1 X44.85 Y82.249 E20.87625
G1 X45.139 Y81.356 E20.91995
G1 X45.503 Y80.492 E20.96361
G1 X45.94 Y79.662 E21.00728
G1 X46.445 Y78.872 E21.05094
G1 X47.016 Y78.128 E21.09461
G1 X47.421 Y77.67 E21.12308
G1 X47.701 Y77.371 E21.14216
G1 X47.894 Y77.17 E21.15513
G1 X57.352 Y67.57 E21.78265
G1 X58.52 Y66.417 E21.85907
G1 X60.474 Y64.433 E21.98874
G1 X61.408 Y63.456 E22.05168
G0 F6000 X61.81 Y63.617
G1 F1200 X71.202 Y54.088 E22.67468
G1 X71.696 Y53.6 E22.70702
G1 X72.378 Y52.982 E22.74987
G1 X73.112 Y52.426 E22.79275
G1 X73.891 Y51.935 E22.83563
G1 X74.709 Y51.514 E22.87847
G1 X75.561 Y51.165 E22.92134
G1 X76.44 Y50.892 E22.9642
G1 X77.34 Y50.696 E23.00709
G1 X78.253 Y50.579 E23.04995
G1 X78.989 Y50.542 E23.08426
G1 X79.894 Y50.53 E23.12641
G1 X93.145 Y50.53 E23.74343
G1 X94.795 Y50.552 E23.82027
G1 X97.493 Y50.551 E23.9459
G1 X99.014 Y50.53 E24.01673
G1 X112.437 Y50.531 E24.64176
G1 X113.14 Y50.542 E24.6745
G1 X114.059 Y50.597 E24.71737
G1 X114.97 Y50.731 E24.76024
G1 X115.866 Y50.943 E24.80311
G1 X116.74 Y51.232 E24.84598
G1 X117.585 Y51.597 E24.88884
G1 X118.396 Y52.033 E24.93171
G1 X119.166 Y52.537 E24.97457
G1 X119.97 Y53.177 E25.02242
G1 X120.805 Y53.911 E25.07418
G1 X122.758 Y55.58 E25.19381
G1 X124.732 Y57.171 E25.31186
G1 X126.742 Y58.702 E25.42952
G1 X128.783 Y60.165 E25.54645
G1 X130.901 Y61.597 E25.6655
G1 X133.021 Y62.943 E25.78243
G1 X135.194 Y64.237 E25.90019
G1 X137.406 Y65.473 E26.01818
G1 X139.648 Y66.642 E26.13592
G1 X141.936 Y67.755 E26.2544
G1 X144.198 Y68.776 E26.36996
G1 X146.608 Y69.785 E26.49161
G1 X148.903 Y70.668 E26.60612
G1 X151.294 Y71.512 E26.72418
G1 X153.718 Y72.291 E26.84274
G1 X156.127 Y72.992 E26.95957
G1 X158.603 Y73.635 E27.07868
G1 X161.056 Y74.202 E27.19592
G1 X163.518 Y74.694 E27.31282
G1 X166.032 Y75.125 E27.43159
G1 X168.541 Y75.482 E27.5496
G1 X171.011 Y75.762 E27.66535
G1 X173.567 Y75.98 E27.7848
G1 X176.069 Y76.122 E27.90149
G1 X178.677 Y76.196 E28.02298
G1 X179.713 Y76.212 E28.07123
G1 X180.633 Y76.266 E28.11414
G1 X181.543 Y76.4 E28.15697
G1 X182.439 Y76.612 E28.19984
G1 X183.313 Y76.901 E28.24271
G1 X184.159 Y77.265 E28.28559
G1 X184.97 Y77.701 E28.32847
G1 X185.74 Y78.205 E28.37132
G1 X186.463 Y78.775 E28.41419
G1 X187.135 Y79.405 E28.45708
G1 X187.749 Y80.091 E28.49995
G1 X188.301 Y80.828 E28.54283
G1 X188.787 Y81.61 E28.5857
G1 X189.204 Y82.431 E28.62858
G1 X189.547 Y83.285 E28.67143
G1 X189.816 Y84.165 E28.71428
G1 X190.006 Y85.066 E28.75716
G1 X190.118 Y85.98 E28.80003
G1 X190.147 Y86.512 E28.82484
G1 X190.156 Y86.831 E28.8397
G1 X190.16 Y87.13 E28.85363
G1 X190.159 Y89.244 E28.95206
G1 X190.149 Y89.945 E28.98471
G1 X190.066 Y91.125 E29.03979
G1 X189.842 Y92.339 E29.09727
G1 X189.583 Y93.392 E29.14777
G1 X188.987 Y95.976 E29.27125
G1 X188.49 Y98.444 E29.38847
G1 X188.062 Y100.941 E29.50644
G1 X187.707 Y103.421 E29.6231
G1 X187.418 Y105.961 E29.74213
G1 X187.205 Y108.453 E29.85859
G1 X187.062 Y110.974 E29.97617
G1 X186.989 Y113.529 E30.09519
G1 X186.988 Y116.047 E30.21244
G1 X187.058 Y118.584 E30.33062
G1 X187.199 Y121.093 E30.44763
G1 X187.412 Y123.603 E30.56493
G1 X187.697 Y126.123 E30.68302
G1 X188.056 Y128.648 E30.80178
G1 X188.48 Y131.124 E30.91875
G1 X188.974 Y133.594 E31.03604
G1 X189.544 Y136.071 E31.15439
G1 X189.833 Y137.224 E31.20974
G1 X190.017 Y138.126 E31.25261
G1 X190.145 Y139.47 E31.31547
G1 X190.155 Y139.792 E31.33047
G1 X190.16 Y140.121 E31.3458
G1 X190.159 Y142.195 E31.44237
G1 X190.15 Y142.922 E31.47622
G1 X190.099 Y143.841 E31.51908
G1 X189.968 Y144.753 E31.56198
G1 X189.758 Y145.649 E31.60484
G1 X189.472 Y146.524 E31.6477
G1 X189.111 Y147.371 E31.69057
G1 X188.677 Y148.183 E31.73345
G1 X188.175 Y148.955 E31.77633
G1 X187.607 Y149.68 E31.81921
G1 X186.979 Y150.353 E31.86207
G1 X186.295 Y150.969 E31.90494
G1 X185.56 Y151.523 E31.94779
G1 X184.78 Y152.012 E31.99066
G1 X183.96 Y152.431 E32.03354
G1 X183.107 Y152.777 E32.0764
G1 X182.227 Y153.048 E32.11928
G1 X181.327 Y153.241 E32.16214
G1 X180.454 Y153.352 E32.20312
G1 X179.973 Y153.393 E32.22559
G1 X177.939 Y153.539 E32.32055
G1 X175.412 Y153.794 E32.43881
G1 X172.937 Y154.114 E32.55502
G1 X170.434 Y154.51 E32.67302
G1 X167.938 Y154.978 E32.79127
G1 X165.452 Y155.516 E32.90971
G1 X163.034 Y156.112 E33.02567
G1 X160.576 Y156.793 E33.14444
G1 X158.148 Y157.539 E33.26271
G1 X155.765 Y158.346 E33.37986
G1 X153.395 Y159.224 E33.49755
G1 X151.042 Y160.172 E33.61567
G1 X148.733 Y161.181 E33.73301
G1 X146.46 Y162.25 E33.84997
G1 X144.16 Y163.412 E33.96996
G1 X141.965 Y164.601 E34.0862
G1 X139.792 Y165.859 E34.20312
G1 X137.614 Y167.202 E34.32226
G1 X135.515 Y168.582 E34.43923
G1 X133.441 Y170.028 E34.55696
G1 X131.405 Y171.537 E34.67497
G1 X129.416 Y173.099 E34.79273
G1 X127.461 Y174.728 E34.91122
G1 X125.565 Y176.399 E35.0289
G1 X123.729 Y178.112 E35.14583
G1 X121.966 Y179.852 E35.26117
G1 X121.028 Y180.804 E35.3234
G1 X120.531 Y181.293 E35.35587
G1 X120.412 Y181.409 E35.3636
G1 X119.824 Y181.953 E35.4009
G1 X119.096 Y182.516 E35.44376
G1 X118.321 Y183.014 E35.48665
G1 X117.507 Y183.443 E35.5295
G1 X116.658 Y183.8 E35.57238
G1 X115.782 Y184.082 E35.61523
G1 X114.884 Y184.286 E35.65811
G1 X113.972 Y184.412 E35.70098
G1 X113.134 Y184.458 E35.74006
G1 X112.226 Y184.47 E35.78235
G1 X98.827 Y184.469 E36.40626
G1 X97.325 Y184.448 E36.47621
G1 X94.627 Y184.449 E36.60184
G1 X93.106 Y184.47 E36.67267
G1 X79.698 Y184.469 E37.297
G1 X78.995 Y184.459 E37.32974
G1 X78.076 Y184.406 E37.3726
G1 X77.165 Y184.273 E37.41547
G1 X76.269 Y184.062 E37.45834
G1 X75.395 Y183.774 E37.50119
G1 X74.548 Y183.411 E37.54409
G1 X73.737 Y182.976 E37.58695
G1 X72.966 Y182.472 E37.62984
G1 X72.242 Y181.904 E37.67269
G1 X71.703 Y181.408 E37.7068
G1 X71.092 Y180.804 E37.7468
G1 X61.796 Y171.369 E38.36355
G1 X60.626 Y170.15 E38.44223
G1 X58.784 Y168.282 E38.56439
G1 X57.783 Y167.296 E38.62981
G1 X48.379 Y157.753 E39.25367
G1 X47.774 Y157.12 E39.29445
G1 X47.168 Y156.426 E39.33735
G1 X46.626 Y155.683 E39.38017
G1 X46.149 Y154.895 E39.42306
G1 X45.743 Y154.069 E39.46592
G1 X45.41 Y153.21 E39.50882
G1 X45.153 Y152.326 E39.55169
G1 X44.973 Y151.423 E39.59456
G1 X44.854 Y150.104 E39.65623
G1 X44.845 Y149.78 E39.67132
G1 X44.841 Y149.488 E39.68492
G1 X44.841 Y144.941 E39.89665
G1 X44.849 Y144.385 E39.92254
G1 X44.851 Y141.738 E40.0458
G1 X44.843 Y141.365 E40.06317
G1 X44.84 Y140.991 E40.08058
G1 X44.841 Y136.345 E40.29692
G1 X44.862 Y134.846 E40.36673
G1 X44.861 Y132.148 E40.49236
G1 X44.84 Y130.623 E40.56338
G1 X44.841 Y121.055 E41.0089
G1 X44.869 Y119.152 E41.09752
G1 X44.88 Y118.766 E41.1155
G1 X44.884 Y116.242 E41.23303
G1 X44.84 Y114.165 E41.32977
G1 X44.841 Y104.197 E41.79392
G1 X44.862 Y102.695 E41.86387
G1 X44.861 Y99.997 E41.9895
G1 X44.84 Y98.476 E42.06033
G1 X44.841 Y94.943 E42.22484
G1 X44.849 Y94.389 E42.25064
G1 X44.85 Y91.749 E42.37357
G1 X44.843 Y91.41 E42.38936
G1 X44.84 Y90.984 E42.40919
G1 X44.841 Y85.711 E42.65472
G1 X44.851 Y85.033 E42.6863
G1 X44.905 Y84.114 E42.72917
G1 X45.038 Y83.203 E42.77203
G1 X45.249 Y82.307 E42.8149
G1 X45.538 Y81.432 E42.85781
G1 X45.901 Y80.586 E42.90067
G1 X46.337 Y79.775 E42.94355
G1 X46.841 Y79.005 E42.9864
G1 X47.713 Y77.944 E43.05035
G1 X47.993 Y77.645 E43.06942
G1 X48.179 Y77.451 E43.08194
G1 X57.745 Y67.742 E43.7166
G1 X58.871 Y66.632 E43.79023
G1 X60.765 Y64.708 E43.91594
G1 X61.81 Y63.617 E43.98629
G0 F6000 X62.095 Y63.897
G1 F1200 X71.386 Y54.469 E44.60264
G1 X71.977 Y53.885 E44.64133
G1 X72.647 Y53.279 E44.6834
G1 X73.368 Y52.735 E44.72545
G1 X74.134 Y52.257 E44.7675
G1 X74.939 Y51.848 E44.80954
G1 X75.778 Y51.513 E44.85161
G1 X76.642 Y51.253 E44.89362
G1 X77.527 Y51.07 E44.9357
G1 X78.424 Y50.967 E44.97774
G1 X78.995 Y50.942 E45.00436
G1 X79.894 Y50.93 E45.04622
G1 X93.145 Y50.93 E45.66325
G1 X94.79 Y50.952 E45.73985
G1 X97.499 Y50.951 E45.86599
G1 X99.014 Y50.93 E45.93654
G1 X112.431 Y50.931 E46.5613
G1 X113.134 Y50.942 E46.59403
G1 X114.035 Y50.996 E46.63606
G1 X114.928 Y51.13 E46.67811
G1 X115.806 Y51.342 E46.72017
G1 X116.662 Y51.631 E46.76224
G1 X117.488 Y51.994 E46.80425
G1 X118.28 Y52.43 E46.84635
G1 X119.03 Y52.933 E46.8884
G1 X119.706 Y53.478 E46.92883
G1 X120.524 Y54.196 E46.97951
G1 X122.492 Y55.879 E47.10009
G1 X124.501 Y57.498 E47.22023
G1 X126.495 Y59.017 E47.33696
G1 X128.572 Y60.506 E47.45595
G1 X130.668 Y61.923 E47.57376
G1 X132.824 Y63.291 E47.69266
G1 X134.974 Y64.572 E47.8092
G1 X137.233 Y65.834 E47.92969
G1 X139.467 Y66.999 E48.04701
G1 X141.733 Y68.101 E48.16434
G1 X144.071 Y69.157 E48.28379
G1 X146.435 Y70.147 E48.40313
G1 X148.775 Y71.046 E48.51986
G1 X151.186 Y71.898 E48.63893
G1 X153.589 Y72.67 E48.75645
G1 X156.02 Y73.377 E48.87434
G1 X158.518 Y74.027 E48.99453
G1 X160.985 Y74.596 E49.11242
